assets/svg/trash.svg

<svg fill="none" height="24" viewBox="0 0 24 24" width="24" xmlns="http://www.w3.org/2000/svg" xmlns:xlink="http://www.w3.org/1999/xlink"><clipPath id="a"><path d="m0 0h24v24h-24z"/></clipPath><g clip-path="url(#a)" fill="#fff"><path d="m21 4h-3.1c-.2321-1.12859-.8462-2.14265-1.7387-2.87128-.8926-.72863-2.0091-1.12726548-3.1613-1.12872h-2c-1.1522.00145452-2.26868.40009-3.16125 1.12872s-1.50665 1.74269-1.73875 2.87128h-3.1c-.26522 0-.51957.10536-.70711.29289-.18753.18754-.29289.44189-.29289.70711s.10536.51957.29289.70711c.18754.18753.44189.29289.70711.29289h1v13c.00159 1.3256.52888 2.5964 1.46622 3.5338.93734.9373 2.20819 1.4646 3.53378 1.4662h6c1.3256-.0016 2.5964-.5289 3.5338-1.4662.9373-.9374 1.4646-2.2082 1.4662-3.5338v-13h1c.2652 0 .5196-.10536.7071-.29289.1875-.18754.2929-.44189.2929-.70711s-.1054-.51957-.2929-.70711c-.1875-.18753-.4419-.29289-.7071-.29289zm-10-2h2c.6203.00076 1.2251.19338 1.7316.55144.5065.35807.8898.86405 1.0974 1.44856h-7.658c.20758-.58451.5909-1.09049 1.09739-1.44856.50648-.35806 1.11131-.55068 1.73161-.55144zm7 17c0 .7956-.3161 1.5587-.8787 2.1213s-1.3256.8787-2.1213.8787h-6c-.79565 0-1.55871-.3161-2.12132-.8787s-.87868-1.3257-.87868-2.1213v-13h12z"/><path d="m10 18c.2652 0 .5196-.1054.7071-.2929s.2929-.4419.2929-.7071v-6c0-.2652-.1054-.5196-.2929-.7071s-.4419-.2929-.7071-.2929c-.26522 0-.51957.1054-.70711.2929-.18753.1875-.29289.4419-.29289.7071v6c0 .2652.10536.5196.29289.7071.18754.1875.44189.2929.70711.2929z"/><path d="m14 18c.2652 0 .5196-.1054.7071-.2929s.2929-.4419.2929-.7071v-6c0-.2652-.1054-.5196-.2929-.7071s-.4419-.2929-.7071-.2929-.5196.1054-.7071.2929-.2929.4419-.2929.7071v6c0 .2652.1054.5196.2929.7071s.4419.2929.7071.2929z"/></g></svg>

<svg width="24" height="24" viewBox="0 0 24 24" fill="none" xmlns="http://www.w3.org/2000/svg">
<g clip-path="url(#clip0_183_7684)">
<path d="M21 4H17.9C17.6679 2.87141 17.0538 1.85735 16.1613 1.12872C15.2687 0.40009 14.1522 0.00145452 13 0L11 0C9.8478 0.00145452 8.73132 0.40009 7.83875 1.12872C6.94618 1.85735 6.3321 2.87141 6.1 4H3C2.73478 4 2.48043 4.10536 2.29289 4.29289C2.10536 4.48043 2 4.73478 2 5C2 5.26522 2.10536 5.51957 2.29289 5.70711C2.48043 5.89464 2.73478 6 3 6H4V19C4.00159 20.3256 4.52888 21.5964 5.46622 22.5338C6.40356 23.4711 7.67441 23.9984 9 24H15C16.3256 23.9984 17.5964 23.4711 18.5338 22.5338C19.4711 21.5964 19.9984 20.3256 20 19V6H21C21.2652 6 21.5196 5.89464 21.7071 5.70711C21.8946 5.51957 22 5.26522 22 5C22 4.73478 21.8946 4.48043 21.7071 4.29289C21.5196 4.10536 21.2652 4 21 4ZM11 2H13C13.6203 2.00076 14.2251 2.19338 14.7316 2.55144C15.2381 2.90951 15.6214 3.41549 15.829 4H8.171C8.37858 3.41549 8.7619 2.90951 9.26839 2.55144C9.77487 2.19338 10.3797 2.00076 11 2ZM18 19C18 19.7956 17.6839 20.5587 17.1213 21.1213C16.5587 21.6839 15.7957 22 15 22H9C8.20435 22 7.44129 21.6839 6.87868 21.1213C6.31607 20.5587 6 19.7956 6 19V6H18V19Z" fill="white"/>
<path d="M10 18C10.2652 18 10.5196 17.8946 10.7071 17.7071C10.8946 17.5196 11 17.2652 11 17V11C11 10.7348 10.8946 10.4804 10.7071 10.2929C10.5196 10.1054 10.2652 10 10 10C9.73478 10 9.48043 10.1054 9.29289 10.2929C9.10536 10.4804 9 10.7348 9 11V17C9 17.2652 9.10536 17.5196 9.29289 17.7071C9.48043 17.8946 9.73478 18 10 18Z" fill="white"/>
<path d="M14 18C14.2652 18 14.5196 17.8946 14.7071 17.7071C14.8946 17.5196 15 17.2652 15 17V11C15 10.7348 14.8946 10.4804 14.7071 10.2929C14.5196 10.1054 14.2652 10 14 10C13.7348 10 13.4804 10.1054 13.2929 10.2929C13.1054 10.4804 13 10.7348 13 11V17C13 17.2652 13.1054 17.5196 13.2929 17.7071C13.4804 17.8946 13.7348 18 14 18Z" fill="white"/>
</g>
<defs>
<clipPath id="clip0_183_7684">
<rect width="24" height="24" fill="white"/>
</clipPath>
</defs>
</svg>
